X: 134
T: Miss Lindsay's Strathspey
R: strathspey
B: William Shepherd "1st Collection" 1793 p.13 #4
F: http://imslp.org/wiki/File:PMLP73094-Shepherd_Collections_HMT.pdf
C: William Shepherd (17??-1812)
Z: 2012 John Chambers <jc:trillian.mit.edu>
M: C|
L: 1/16
K: Gdor
[|\
DTG3G3A B3GA3F | TDG3G3A TBABc d2g2 |\
DTG3G3A B3GA3G | FC3C3D F3GAf3 |\
DTG3G3A B3GA3F | DG3G3A BABc dg3 |
DG3G3A B3GA3G | FC3A,3C F3GAF3 ||\
GTg3g3a  {ga}b3ga2^f2 | Gg3g3a b3ag2f2 |\
GTg3g3a {ga}b3ga2e2 |
fd3cf3 AF3c3A |\
GTg3g3a {ga}b3ga2^f2 | GTg3g3a b3ag2f2 |\
b3ga3^f g3d=f3c | Td2cB Af3 AF3c3A |]
